assets/icons/service.svg

<?xml version="1.0" encoding="UTF-8"?>
<svg width="50px" height="50px" viewBox="0 0 50 50" version="1.1" xmlns="http://www.w3.org/2000/svg" xmlns:xlink="http://www.w3.org/1999/xlink">
    <!-- Generator: Sketch 59.1 (86144) - https://sketch.com -->
    <title>service</title>
    <desc>Created with Sketch.</desc>
    <g id="Page-1" stroke="none" stroke-width="1" fill="none" fill-rule="evenodd">
        <g id="quote_form" transform="translate(-335.000000, -51.000000)" fill="#C6C4C4" fill-rule="nonzero">
            <g id="timeline" transform="translate(215.000000, 50.000000)">
                <g id="service" transform="translate(120.000000, 1.000000)">
                    <path d="M47.2930908,36.8929623 C47.0596313,28.9462864 44.7681427,21.5227882 40.7787323,15.8646771 C36.9113922,10.3796961 31.8740845,7.15785152 26.4648438,6.66388934 L26.4648438,4.15512465 L28.9550781,4.15512465 L28.9550781,0 L21.0449219,0 L21.0449219,4.15512465 L23.5351562,4.15512465 L23.5351562,6.66388934 C18.1259155,7.15785152 13.0886078,10.3796961 9.22126768,15.8646771 C5.23185732,21.5227882 2.94036865,28.9462864 2.70690918,36.8929623 L0,36.8929623 L0,41.6204986 C0,46.2409107 2.65045166,50 5.90820312,50 L44.0917969,50 C47.3495483,50 50,46.2409107 50,41.6204986 L50,36.8929623 L47.2930908,36.8929623 Z M25,10.750303 C35.3694916,10.750303 43.862915,22.3581414 44.3611145,36.8929623 L5.63888555,36.8929623 C6.13708496,22.3581414 14.6305084,10.750303 25,10.750303 Z M47.0703125,41.6204986 C47.0703125,43.9496407 45.734024,45.8448753 44.0917969,45.8448753 L5.90820312,45.8448753 C4.26597598,45.8448753 2.9296875,43.9496407 2.9296875,41.6204986 L2.9296875,41.048087 L47.0703125,41.048087 L47.0703125,41.6204986 Z" id="Shape"></path>
                    <path d="M8.36448672,33.0824749 L11.2636566,33.6813972 C11.2693787,33.628917 11.8461609,28.3836133 14.2158508,25.4295792 L12.2814179,22.3083665 C9.08889766,26.288738 8.39271543,32.8065486 8.36448672,33.0824749 Z" id="Path"></path>
                </g>
            </g>
        </g>
    </g>
</svg>

<svg xmlns="http://www.w3.org/2000/svg" width="50" height="50" viewBox="0 0 50 50"><g fill="#C6C4C4"><path d="M47.293 36.893c-.233-7.947-2.525-15.37-6.514-21.028-3.868-5.485-8.905-8.707-14.314-9.201V4.155h2.49V0h-7.91v4.155h2.49v2.509c-5.41.494-10.446 3.716-14.314 9.2-3.99 5.659-6.28 13.082-6.514 21.029H0v4.727C0 46.24 2.65 50 5.908 50h38.184C47.35 50 50 46.24 50 41.62v-4.727h-2.707zM25 10.75c10.37 0 18.863 11.608 19.361 26.143H5.64C6.137 22.358 14.63 10.75 25 10.75zm22.07 30.87c0 2.33-1.336 4.225-2.978 4.225H5.908c-1.642 0-2.978-1.895-2.978-4.225v-.572h44.14v.572z"/><path d="M8.364 33.082l2.9.6c.005-.053.582-5.298 2.952-8.252l-1.935-3.122c-3.192 3.98-3.888 10.499-3.917 10.774z"/></g></svg>
